X:796
T:Ashleys Rides. JC.001
T:Astley's Ride,aka. JC.001
M:4/4
L:1/8
Q:120
C:Beginning of MS.12
S:John Clare,Poet,Helpston.(1793-1864)
R:Misc.
O:England
A:Northamptonshire
N:b4 A2 was B2 in MS.
N:Usually in 2/4.
Z:P Headford.
K:D
"6/8 in MS,"af|d2d2d2cd|e2e2e2ge|dcBAB2c2|d2D2D2af|!
d2d2d2cd|e2e2e2ge|dcBA (Bd)(ce)|d2d2d2:|!
|:de|f2f2f2ef|g2g2g2bg|e2e2e2de|f2f2f2af|!
d2d2d2cd|e2e2e2ge|dcBA (Bd)(ce)|d2d2d2:|]
W:Tunes to Number 83 inc. are in MS.12
